assets/img/social-media.svg

<?xml version="1.0" encoding="UTF-8"?>
<svg width="46px" height="50px" viewBox="0 0 46 50" version="1.1" xmlns="http://www.w3.org/2000/svg" xmlns:xlink="http://www.w3.org/1999/xlink">
    <!-- Generator: Sketch 64 (93537) - https://sketch.com -->
    <title>social-media(2)</title>
    <desc>Created with Sketch.</desc>
    <defs>
        <linearGradient x1="50%" y1="1.11189028e-14%" x2="50%" y2="100.150173%" id="linearGradient-1">
            <stop stop-color="#42BFFF" offset="0%"></stop>
            <stop stop-color="#1174AC" offset="100%"></stop>
        </linearGradient>
        <linearGradient x1="50.0267157%" y1="6.49886649e-14%" x2="50.0267157%" y2="100%" id="linearGradient-2">
            <stop stop-color="#137DBF" offset="0%"></stop>
            <stop stop-color="#02476C" offset="100%"></stop>
        </linearGradient>
        <linearGradient x1="50.2792784%" y1="99.890619%" x2="50.2792784%" y2="9.75041239e-06%" id="linearGradient-3">
            <stop stop-color="#002237" offset="0%"></stop>
            <stop stop-color="#003352" offset="100%"></stop>
        </linearGradient>
        <linearGradient x1="50.2792784%" y1="9.75041239e-06%" x2="50.2792784%" y2="99.890619%" id="linearGradient-4">
            <stop stop-color="#D6D6D6" offset="0%"></stop>
            <stop stop-color="#A1A1A1" offset="100%"></stop>
        </linearGradient>
        <linearGradient x1="50%" y1="0%" x2="50%" y2="100%" id="linearGradient-5">
            <stop stop-color="#D6D6D6" offset="0%"></stop>
            <stop stop-color="#A1A1A1" offset="100%"></stop>
        </linearGradient>
        <linearGradient x1="50%" y1="100%" x2="50%" y2="0%" id="linearGradient-6">
            <stop stop-color="#002237" offset="0%"></stop>
            <stop stop-color="#003352" offset="100%"></stop>
        </linearGradient>
        <linearGradient x1="49.988152%" y1="0.0301828577%" x2="49.988152%" y2="99.9599844%" id="linearGradient-7">
            <stop stop-color="#FF4D6C" offset="0%"></stop>
            <stop stop-color="#FF0825" offset="100%"></stop>
        </linearGradient>
    </defs>
    <g id="Welcome" stroke="none" stroke-width="1" fill="none" fill-rule="evenodd">
        <g id="lpw-addons-1.1" transform="translate(-1122.000000, -331.000000)" fill-rule="nonzero">
            <g id="social-media(2)" transform="translate(1122.000000, 331.000000)">
                <path d="M46,24.516129 C46,18.1024997 40.8512746,12.9032258 34.5,12.9032258 C28.1487254,12.9032258 23,18.1024997 23,24.516129 C23.0004112,24.6915338 23.0539131,24.8626198 23.1533333,25.0064516 L30.0618519,35.0795699 C30.1612966,35.2212371 30.3008716,35.3291952 30.4622222,35.3892473 C32.104688,36.0163045 33.8690821,36.2489584 35.6159259,36.0688172 C36.448156,38.3131988 38.390837,39.9479935 40.727037,40.3698925 C41.0068536,40.4301626 41.2979436,40.3445575 41.5019618,40.1419988 C41.70598,39.9394402 41.7956741,39.6469854 41.7407407,39.3634409 C41.3250566,37.5272882 41.2356432,35.6311723 41.4766667,33.7634409 C44.3264017,31.558999 45.9982455,28.141152 46,24.516129 L46,24.516129 Z" id="Path" fill="url(#linearGradient-1)"></path>
                <path d="M23.2981481,21.9354839 C23.103698,22.7817661 23.0036924,23.6473732 23,24.516129 C23.0004112,24.6915338 23.0539131,24.8626198 23.1533333,25.0064516 L30.0618519,35.0795699 C30.1612966,35.2212371 30.3008716,35.3291952 30.4622222,35.3892473 C31.3318274,35.7200258 32.2389942,35.9396521 33.1625926,36.0430108 C33.7455927,29.5339162 29.5674928,23.5586525 23.2981481,21.9354839 L23.2981481,21.9354839 Z" id="Path" fill="url(#linearGradient-2)"></path>
                <path d="M20.0185185,23.2258038 C15.2814887,23.2226147 11.0279112,26.1550481 9.30571944,30.6112531 C7.58352771,35.0674581 8.74565927,40.134202 12.2325926,43.372043 C12.4391884,45.1943197 12.3354695,47.0388591 11.9259259,48.8258065 C11.8419327,49.1236065 11.9229167,49.4440128 12.1379689,49.6647364 C12.3530212,49.88546 12.6689538,49.9724378 12.9651852,49.8924731 C15.0391241,49.495425 16.8084078,48.1387145 17.7440741,46.227957 C22.0172909,47.0516909 26.3847909,45.3680233 29.0273374,41.8782684 C31.6698838,38.3885135 32.1343674,33.6910488 30.2273124,29.7425544 C28.3202574,25.79406 24.3686606,23.2715719 20.0185185,23.2258038 L20.0185185,23.2258038 Z" id="Path" fill="url(#linearGradient-3)"></path>
                <path d="M11.5,-2.60295736e-06 C6.76297021,-0.00319178972 2.50939266,2.92924163 0.787200923,7.38544663 C-0.934990812,11.8416516 0.22714075,16.9083956 3.71407407,20.1462366 C3.92066991,21.9685133 3.81695093,23.8130526 3.40740741,25.6 C3.32341415,25.8978 3.40439816,26.2182063 3.61945041,26.43893 C3.83450266,26.6596536 4.15043525,26.7466314 4.44666667,26.6666667 C6.52060556,26.2696186 8.28988928,24.9129081 9.22555556,23.0021505 C13.4987724,23.8258845 17.8662724,22.1422169 20.5088188,18.652462 C23.1513653,15.1627071 23.6158489,10.4652424 21.7087939,6.51674795 C19.8017389,2.56825352 15.8501421,0.0457654752 11.5,-2.60295736e-06 Z" id="Path" fill="url(#linearGradient-4)"></path>
                <path d="M23.8518519,30.1075269 L23.8518519,28.3870968 L17.8888889,28.3870968 C17.4184241,28.3870968 17.037037,28.7722282 17.037037,29.2473118 L17.037037,41.2903226 L18.7407407,41.2903226 L18.7407407,35.2688172 L22.1481481,35.2688172 L22.1481481,33.5483871 L18.7407407,33.5483871 L18.7407407,30.1075269 L23.8518519,30.1075269 Z" id="Path" fill="url(#linearGradient-5)"></path>
                <path d="M35.7777778,25.8064516 L35.7777778,27.0967742 C35.7777778,27.8093997 35.2056972,28.3870968 34.5,28.3870968 C33.7943028,28.3870968 33.2222222,27.8093997 33.2222222,27.0967742 L33.2222222,23.2258065 L36.6296296,23.2258065 L36.6296296,21.5053763 L33.2222222,21.5053763 L33.2222222,18.9247312 L31.5185185,18.9247312 L31.5185185,27.0967742 C31.5185185,28.759567 32.8533732,30.1075269 34.5,30.1075269 C36.1466268,30.1075269 37.4814815,28.759567 37.4814815,27.0967742 L37.4814815,25.8064516 L35.7777778,25.8064516 Z" id="Path" fill="url(#linearGradient-6)"></path>
                <path d="M16.9177778,7.50107527 C15.4681281,6.03733409 13.1915515,5.82406882 11.5,6.99354839 C9.68501439,5.74162194 7.22472719,6.08994578 5.82064989,7.79762242 C4.4165726,9.50529906 4.5298854,12.0114287 6.08222222,13.5827957 L10.8951852,18.4516129 C11.0551345,18.6144625 11.2728643,18.7060631 11.5,18.7060631 C11.7271357,18.7060631 11.9448655,18.6144625 12.1048148,18.4516129 L16.9177778,13.5827957 C18.5805157,11.9032264 18.5805157,9.18064452 16.9177778,7.50107527 L16.9177778,7.50107527 Z" id="Path" fill="url(#linearGradient-7)"></path>
            </g>
        </g>
    </g>
</svg>

<svg width="46" height="50" xmlns="http://www.w3.org/2000/svg"><defs><linearGradient x1="50%" y1="0%" x2="50%" y2="100.15%" id="a"><stop stop-color="#42BFFF" offset="0%"/><stop stop-color="#1174AC" offset="100%"/></linearGradient><linearGradient x1="50.027%" y1="0%" x2="50.027%" y2="100%" id="b"><stop stop-color="#137DBF" offset="0%"/><stop stop-color="#02476C" offset="100%"/></linearGradient><linearGradient x1="50.279%" y1="99.891%" x2="50.279%" y2="0%" id="c"><stop stop-color="#002237" offset="0%"/><stop stop-color="#003352" offset="100%"/></linearGradient><linearGradient x1="50.279%" y1="0%" x2="50.279%" y2="99.891%" id="d"><stop stop-color="#D6D6D6" offset="0%"/><stop stop-color="#A1A1A1" offset="100%"/></linearGradient><linearGradient x1="50%" y1="0%" x2="50%" y2="100%" id="e"><stop stop-color="#D6D6D6" offset="0%"/><stop stop-color="#A1A1A1" offset="100%"/></linearGradient><linearGradient x1="50%" y1="100%" x2="50%" y2="0%" id="f"><stop stop-color="#002237" offset="0%"/><stop stop-color="#003352" offset="100%"/></linearGradient><linearGradient x1="49.988%" y1=".03%" x2="49.988%" y2="99.96%" id="g"><stop stop-color="#FF4D6C" offset="0%"/><stop stop-color="#FF0825" offset="100%"/></linearGradient></defs><g fill="none"><path d="M46 24.516c0-6.414-5.149-11.613-11.5-11.613S23 18.103 23 24.516c0 .176.054.347.153.49l6.909 10.074c.1.141.239.25.4.31a11.22 11.22 0 005.154.679 6.738 6.738 0 005.111 4.3c.28.061.57-.024.775-.227a.866.866 0 00.239-.779 16.058 16.058 0 01-.264-5.6A11.696 11.696 0 0046 24.516z" fill="url(#a)"/><path d="M23.298 21.935A11.748 11.748 0 0023 24.516c0 .176.054.347.153.49l6.909 10.074c.1.141.239.25.4.31.87.33 1.777.55 2.7.653.584-6.51-3.595-12.484-9.864-14.108z" fill="url(#b)"/><path d="M20.019 23.226c-4.738-.003-8.991 2.929-10.713 7.385-1.722 4.456-.56 9.523 2.927 12.761a16.231 16.231 0 01-.307 5.454.866.866 0 00.212.839c.215.22.531.307.827.227a6.738 6.738 0 004.78-3.664c4.272.824 8.64-.86 11.282-4.35a11.698 11.698 0 001.2-12.135c-1.907-3.949-5.858-6.471-10.208-6.517z" fill="url(#c)"/><path d="M11.5 0C6.763-.003 2.51 2.93.787 7.385c-1.722 4.457-.56 9.523 2.927 12.761a16.231 16.231 0 01-.307 5.454.866.866 0 00.212.839.85.85 0 00.828.228 6.738 6.738 0 004.779-3.665c4.273.824 8.64-.86 11.283-4.35a11.698 11.698 0 001.2-12.135C19.802 2.568 15.85.046 11.5 0z" fill="url(#d)"/><path d="M23.852 30.108v-1.72h-5.963a.856.856 0 00-.852.86V41.29h1.704v-6.02h3.407v-1.72h-3.407v-3.441h5.11z" fill="url(#e)"/><path d="M35.778 25.806v1.29c0 .713-.572 1.291-1.278 1.291a1.284 1.284 0 01-1.278-1.29v-3.871h3.408v-1.72h-3.408v-2.581H31.52v8.172c0 1.663 1.334 3.01 2.981 3.01 1.647 0 2.981-1.347 2.981-3.01v-1.29h-1.703z" fill="url(#f)"/><path d="M16.918 7.501a4.228 4.228 0 00-5.418-.507 4.23 4.23 0 00-5.68.804 4.332 4.332 0 00.262 5.785l4.813 4.869a.848.848 0 001.21 0l4.813-4.87a4.331 4.331 0 000-6.08z" fill="url(#g)"/></g></svg>
